!!!OTL: 119. Freylekhs
!!!Genre:	Freylekhs
!!!Mode:	Altered Dorian
!!!Listening/dance:	dance
!!!:	*G:
!!!One_Mode:	no
**kern
*thru
*part1
*staff1
*clefG2
*k[b-]
*G:
=14!|:
*k[f#]
!LO:TX:a:i:t=G-major
2b
=15
2b
=16
(>8qcc/
4b)
(>8qcc/
4b)
=17
4b
(>8.bL
16ddJk)
=18
(>16ddLL
16cc)
(>16cc
16bJJ)
8.bL
16ddJk
=19
(>16ddLL
16cc)
(>16cc
16bJJ)
8.bL
16ddJk
=20
(>16ddLL
16cc)
(>16cc
16bJJ)
(<16bLL
16a)
(<16a
16gJJ)
*>C1
=21
16aLL
16bJJ
4g
24dLL
24g
24aJJ
*>C
*k[f#]
!LO:TX:a:i:t=G-major
2b
=15
2b
=16
(>8qcc/
4b)
(>8qcc/
4b)
=17
4b
(>8.bL
16ddJk)
=18
(>16ddLL
16cc)
(>16cc
16bJJ)
8.bL
16ddJk
=19
(>16ddLL
16cc)
(>16cc
16bJJ)
8.bL
16ddJk
=20
(>16ddLL
16cc)
(>16cc
16bJJ)
(<16bLL
16a)
(<16a
16gJJ)
*>C2
=22:|!
!LO:TX:b:Bi:t=Da Capo al Fine
(<16aLL
16bJJ
4g)
8d
!!!End-Modulation
==
*-
